X:1
T: Coupar Angus Jigg
C:
R:Jig
Q:180
K:C
M:6/8
L:1/16
|:E2|C2E2G2 G2E2G2|A2F2A2 A2B2c2|C2E2G2 G2E2C2|D2B,2G,2 G,4E2|
C2E2G2 G2E2G2|A2F2A2 A2B2c2|B3AB2 G2c2B2|c2C2C2 C4:|
|:f2|efg2g2 g2e2c2|fga2a2 a2b2c'2|efg2g2 g2e2c2|d2B2G2 G4f2|
|1efg2g2 g2e2c2|fga2a2 a2b2c'2|g3fg2 g2a2g2|c'2c2c2 c4:|
|2g2e2g2 f2d2f2|e2c2e2 d2B2d2|c2B2A2 G2E2c2|G2E2C2 C4||
